X:1
T:Title
%%score ( 1 2 ) ( 3 4 5 )
L:1/8
Q:1/4=100
M:4/4
K:G
V:1 treble nm="Midi_20"
V:2 treble 
V:3 bass nm="Midi_20"
V:4 bass 
V:5 bass 
V:1
"^William Chatterton Dix\n(1837-98)""^Come unto me (76. 76. D)""^Come unto Me, ye weary""^John Bacchus Dykes\n(1823-76)" z4 | %1
 D4 E2 D2- | D4 G4- | G4 G2 F2 | G4 ||[M:4/4] B4 | B2 B2 B2 e2 | e4 A2 d2 | F2 B2 G3 E | D6 || B2 | %11
 d3 d c2 B2 | d4 c2 A2 | c3 c B2 A2 | B6 || B2 | G3 G G2 G2 | d4 B2 G2 | D2 c2 B2 A2 | G4 |] %20
V:2
 z4 | B,4 C4- | C2 B,2 z2 E2 | D4 C4 | B,4 ||[M:4/4] D4 | G2 F2 E2 G2 | (G2 E2) F2 D2 | %8
w: |||||O|bless- ed voice of|Je\- * sus, Which|
w: |||||O|lov- ing voice of|Je\- * sus, Which|
w: |||||O|peace- ful voice of|Je\- * sus, Which|
w: |||||O|pat- ient voice of|Je\- * sus, Which|
 D2 D2 ^C3 C | D6 || F2 | D3 F E2 E2 | (F2 ^G2) A2 E2 | C3 E D2 D2 | D6 || D2 | E3 D ^C2 G2 | %17
w: comes to hearts op-|pressed!|It|tells of be- ne-|dic\- * tion, Of|par- don, grace and|peace,|||
w: comes to cheer the|night!|Our|hearts were filled with|sad\- * ness, And|we had lost our|way;|||
w: comes to end our|strife!|The|foe is stern and|ea\- * ger, The|fight is fierce and|long;|||
w: drives a- way our|doubt,|Which|calls us, ve- ry|sin\- * ners, un-|worth- y though we|be|||
 G4 D2 D2 | D2 E2 D2 C2 | B,4 |] %20
w: |||
w: |||
w: |||
w: |||
V:3
 !>!G,4 | !>!G,2 !>!G,2 !>!E,3 !>!F, | !>!G,2 !>!G,2 z2 A,2 | B,2 G,2 A,3 G, | G,4 ||[M:4/4] B,4 | %6
w: ~~'Come|un- to Me, ye|wea- ry, And|I will give you|rest.'||
w: ~~'Come|un- to Me, ye|wander- ers, And|I will give you|light.'||
w: ~~'Come|un- to Me, ye|faint- ing, And|I will give you|life.'||
w: 'And|who- so- e- ver|com- eth, I|will not cast him|out.'||
 B,2 A,2 G,2 B,2 | A,4 A,2 G,2 | A,2 E,2 E,3 G, | F,6 || F,2 | B,3 A, ^G,2 G,2 | A,2 B,2 C2 E,2 | %13
w: |||||||
w: |||||||
w: |||||||
w: |||||||
 A,3 G, F,2 C2 | B,6 || G,2 | B,3 B, A,2 G,2 | (B,2 D2) G,2 B,2 | C2 D,2 E,2 F,2 | G,4 |] %20
w: ||Of|joy that hath no|end\- * ing, Of|love which can- not|cease.|
w: ||But|morn- ing brings us|glad\- * ness, And|songs the break of|day.|
w: ||But|Thou hast made us|migh\- * ty, And|strong- er than the|strong.|
w: ||Of|love so free and|bound\- * less, To|come, dear Lord, to|Thee!|
V:4
 G,4 | G,2 G,2 E,3 F, | G,2 G,2 z2 A,2 | B,2 G,2 A,3 G, | G,4 ||[M:4/4] G,4 | E,2 E,2 E,2 D,2 | %7
 ^C,4 D,2 B,,2 | A,,2 G,,2 A,,3 A,, | D,6 || D,2 | B,,3 B,, E,2 E,2 | E,4 A,,2 C,2 | %13
 A,,3 A,, D,2 D,2 | G,6 || G,2 | E,3 E, E,2 E,2 | D,4 D,2 D,2 | D,2 D,2 D,2 D,2 | G,,4 |] %20
V:5
 x4 | x8 | x4 z2 C,2 | D,4 D,4 | x4 ||[M:4/4] x4 | x8 | x8 | x8 | x6 || x2 | x8 | x8 | x8 | x6 || %15
 x2 | x8 | x8 | x8 | x4 |] %20

